packages/Snappmarket/src/BasketIcon/index.svg

<svg width="15px" height="18px" viewBox="0 0 15 18" version="1.1" xmlns="http://www.w3.org/2000/svg">
  <path d="M13.6986529,4.11458323 L11.6722497,4.11458323 C11.4080851,1.8008845 9.49519462,0 7.181818,0 C4.86844138,0 2.95555085,1.8008845 2.6913863,4.11458323 L0.664983148,4.11458323 C0.297712955,4.11458323 0,4.42159971 0,4.8003471 L0,16.8697912 C0,17.2485386 0.297712955,17.5555551 0.664983148,17.5555551 L13.6986529,17.5555551 C14.065923,17.5555551 14.363636,17.2485386 14.363636,16.8697912 L14.363636,4.8003471 C14.363636,4.42159971 14.065923,4.11458323 13.6986529,4.11458323 Z M7.181818,1.37152774 C8.76062099,1.37152774 10.0751264,2.55978509 10.32915,4.11458323 L4.03448601,4.11458323 C4.28850957,2.55978509 5.60301501,1.37152774 7.181818,1.37152774 Z M13.0336697,16.1840274 L1.3299663,16.1840274 L1.3299663,5.48611097 L2.65993259,5.48611097 L2.65993259,7.54340259 C2.65993259,7.92214997 2.95764555,8.22916646 3.32491574,8.22916646 C3.69218593,8.22916646 3.98989889,7.92214997 3.98989889,7.54340259 L3.98989889,5.48611097 L10.3737371,5.48611097 L10.3737371,7.54340259 C10.3737371,7.92214997 10.6714501,8.22916646 11.0387203,8.22916646 C11.4059905,8.22916646 11.7037034,7.92214997 11.7037034,7.54340259 L11.7037034,5.48611097 L13.0336697,5.48611097 L13.0336697,16.1840274 Z" />
</svg>

<svg xmlns="http://www.w3.org/2000/svg" viewBox="0 0 15 18">
  <path d="M13.699 4.115h-2.027C11.408 1.8 9.495 0 7.182 0c-2.314 0-4.226 1.8-4.49 4.115H.664A.676.676 0 000 4.8v12.07c0 .379.298.686.665.686h13.034a.676.676 0 00.665-.686V4.8a.676.676 0 00-.665-.685zM7.182 1.372c1.579 0 2.893 1.188 3.147 2.743H4.034C4.29 2.56 5.603 1.372 7.182 1.372zm5.852 14.812H1.33V5.486h1.33v2.057c0 .38.298.686.665.686a.676.676 0 00.665-.686V5.486h6.384v2.057c0 .38.297.686.665.686a.676.676 0 00.665-.686V5.486h1.33v10.698z"/>
</svg>
